!!!OTL: CHOEN ULERICH UND HANSELEIN
!!!ARE: Europa, Mitteleuropa, Deutschland, Breslau
!!!SCT: E0042C
!!!YEM: Copyright 1995, estate of Helmut Schaffrath.
**kern
*ICvox
*Ivox
*M2/4
*k[f#]
*G:
{8g
=1
8g
8b
8dd
8b
=2
8ee
8cc
8dd}
{8b
=3
8dd
8dd
8cc
8a
=4
8g
8b
8a}
{8d
=5
8g
8g
8a
8dd
=6
4b
8a
8f#
=7
4g
8r}
==
!!!AGN: erzaehlendes Volks - Lied, Ritter -, Raeuber - Sage, Ballade ?
!!!ONB: ESAC (Essen Associative Code) Database: ERK1
!!!AMT: simple duple
!!!AIN: vox
!!!EED: Helmut Schaffrath
!!!EEV: 1.0
*-
